src/assets/icons/wheel.svg

<?xml version="1.0" encoding="UTF-8" standalone="no"?>
<!-- Created with Inkscape (http://www.inkscape.org/) -->

<svg
   viewBox="0 0 24 24"
   id="svg2"
   sodipodi:version="0.32"
   inkscape:version="1.2.1 (9c6d41e410, 2022-07-14)"
   sodipodi:docname="wheel.svg"
   version="1.0"
   inkscape:export-filename="wheel.svg"
   inkscape:export-xdpi="96"
   inkscape:export-ydpi="96"
   xmlns:inkscape="http://www.inkscape.org/namespaces/inkscape"
   xmlns:sodipodi="http://sodipodi.sourceforge.net/DTD/sodipodi-0.dtd"
   xmlns="http://www.w3.org/2000/svg"
   xmlns:svg="http://www.w3.org/2000/svg"
   xmlns:rdf="http://www.w3.org/1999/02/22-rdf-syntax-ns#"
   xmlns:cc="http://creativecommons.org/ns#"
   xmlns:dc="http://purl.org/dc/elements/1.1/">
  <defs
     id="defs4" />
  <sodipodi:namedview
     id="base"
     pagecolor="#ffffff"
     bordercolor="#666666"
     borderopacity="1.0"
     inkscape:pageopacity="0.0"
     inkscape:pageshadow="2"
     inkscape:zoom="22.627417"
     inkscape:cx="18.075417"
     inkscape:cy="12.948893"
     inkscape:document-units="px"
     inkscape:current-layer="layer1"
     showguides="true"
     inkscape:guide-bbox="true"
     inkscape:window-x="0"
     inkscape:window-y="0"
     inkscape:showpageshadow="2"
     inkscape:pagecheckerboard="0"
     inkscape:deskcolor="#d1d1d1"
     showgrid="false"
     inkscape:window-width="1920"
     inkscape:window-height="1200"
     inkscape:window-maximized="1" />
  <metadata
     id="metadata7">
    <rdf:RDF>
      <cc:Work
         rdf:about="">
        <dc:format>image/svg+xml</dc:format>
        <dc:type
           rdf:resource="http://purl.org/dc/dcmitype/StillImage" />
        <dc:title>Dharma Wheel</dc:title>
        <dc:date>2006-05-25</dc:date>
        <dc:creator>
          <cc:Agent>
            <dc:title>Vinicius Cubas Brand</dc:title>
          </cc:Agent>
        </dc:creator>
        <dc:rights>
          <cc:Agent>
            <dc:title>Public Domain</dc:title>
          </cc:Agent>
        </dc:rights>
        <dc:publisher>
          <cc:Agent>
            <dc:title>Vinicius Cubas Brand</dc:title>
          </cc:Agent>
        </dc:publisher>
        <cc:license
           rdf:resource="http://web.resource.org/cc/PublicDomain" />
      </cc:Work>
      <cc:License
         rdf:about="http://web.resource.org/cc/PublicDomain">
        <cc:permits
           rdf:resource="http://web.resource.org/cc/Reproduction" />
        <cc:permits
           rdf:resource="http://web.resource.org/cc/Distribution" />
        <cc:permits
           rdf:resource="http://web.resource.org/cc/DerivativeWorks" />
      </cc:License>
    </rdf:RDF>
  </metadata>
  <g
     inkscape:label="Layer 1"
     inkscape:groupmode="layer"
     id="layer1">
    <g
       id="g7039"
       transform="matrix(0.04786106,0,0,0.04781682,-2.6726299,-1.8223314)"
       inkscape:export-filename="wheel.svg"
       inkscape:export-xdpi="96"
       inkscape:export-ydpi="96">
      <path
         id="path2507"
         d="m 306.80223,39.316774 v 0.0625 l -20.8125,19.71875 1.875,21.0625 c -42.72301,3.96 -81.73615,20.810416 -113.09375,46.624996 l -14.0625,-16.84375 -28.6875,0.78125 -0.0312,-0.0625 v 0.0625 0.0312 l -0.78125,28.65625 16.65625,13.9375 c -27.23788,32.20551 -44.90282,72.7526 -48.593752,117.25 l -22.4375,-2 -19.71875,20.8125 h -0.0625 l 0.03125,0.0312 -0.03125,0.0312 h 0.0625 l 19.71875,20.8125 22.6875,-2.03125 c 4.188782,43.60883 21.820072,83.30254 48.687502,114.90625 l -18,15.03125 0.78125,28.65625 -0.0312,0.0625 h 0.0312 0.0312 l 28.6875,0.75 15.21875,-18.21875 c 31.37659,25.77089 70.39793,42.58197 113.125,46.5 l -2.0625,23.09375 20.8125,19.71875 v 0.0625 l 0.0312,-0.0312 0.0312,0.0312 v -0.0625 l 20.8125,-19.71875 -2.0625,-23 c 42.99139,-3.73629 82.27081,-20.5316 113.84375,-46.375 l 14.5,17.34375 28.6875,-0.75 h 0.0312 0.0312 l -0.0312,-0.0625 0.78125,-28.65625 -17.0625,-14.28125 c 26.87612,-31.5801 44.53069,-71.25681 48.75,-114.84375 l 21.15625,1.875 19.71875,-20.8125 h 0.0625 l -0.0312,-0.0312 0.0312,-0.0312 h -0.0625 l -19.71875,-20.8125 -20.9375,1.875 c -3.69345,-44.17709 -21.16197,-84.4558 -48.09375,-116.53125 l 16.1875,-13.53125 -0.78125,-28.65625 v -0.0312 -0.0625 l -0.0312,0.0625 -28.6875,-0.78125 -13.59375,16.25 C 408.68578,100.96055 369.12888,83.904374 325.80223,80.098024 l 1.875,-21 -20.8125,-19.71875 v -0.0625 l -0.0312,0.03125 z m 16,74.343746 c 36.28014,3.18129 69.39308,17.46246 95.9375,39.40625 l -59.21875,70.8125 c -12.49675,-10.17945 -27.9676,-16.84836 -44.90625,-18.46875 z m -31.9375,0.0937 8.1875,91.625 c -16.53098,1.45855 -31.67515,7.69359 -44.0625,17.34375 l -58.5625,-70.0625 c 26.21338,-21.50815 58.77852,-35.57269 94.4375,-38.90625 z m -117.09375,61.25 69.84375,58.40625 c -11.57559,13.08696 -19.10873,29.80137 -20.71875,48.21875 l -90,-8.03125 c 3.06859,-37.42898 17.94875,-71.53188 40.875,-98.59375 z m 267.625,0.5625 c 22.62771,26.9399 37.3053,60.7886 40.375,97.90625 l -91.5625,8.15625 c -1.55425,-17.78443 -8.68201,-33.96729 -19.59375,-46.84375 z m -136.15625,49.125 c 0.1363,-0.003 0.26975,0.003 0.40625,0 0.41437,-0.008 0.83376,0 1.25,0 35.51939,2e-5 64.34375,28.82436 64.34375,64.34375 10e-6,35.51939 -28.82436,64.34375 -64.34375,64.34375 -35.51939,-2e-5 -64.34375,-28.82436 -64.34375,-64.34375 -1e-5,-34.96603 27.93209,-63.46475 62.6875,-64.34375 z m -82.28125,72.5625 c 1.72337,17.74687 8.9665,33.87811 20,46.65625 l -68.875,57.59375 c -22.55429,-26.46193 -37.36957,-59.7128 -40.9375,-96.25 z m 167.15625,0 91.40625,8.15625 c -3.59961,36.52499 -18.42673,69.77713 -41,96.21875 l -69.84375,-58.40625 c 10.71351,-12.66871 17.74314,-28.5346 19.4375,-45.96875 z m -30.53125,56.875 58.25,69.65625 c -26.43631,21.556 -59.27569,35.54362 -95.21875,38.65625 l -8,-89.78125 c 16.96968,-1.62335 32.46005,-8.32023 44.96875,-18.53125 z m -105.40625,0.5625 c 12.53345,10.01506 27.9791,16.51006 44.875,18 l -8,89.65625 c -35.67749,-3.29531 -68.26141,-17.29737 -94.5,-38.78125 z"
         style="display:inline;fill:#f08618;fill-opacity:1;fill-rule:evenodd;stroke:#000000;stroke-width:1px;stroke-linecap:butt;stroke-linejoin:miter;stroke-opacity:1" />
      <g
         transform="matrix(0.908209,0,0,0.908209,-23.17143,16.24009)"
         id="g7028">
        <circle
           style="fill:#f08618;fill-opacity:1;fill-rule:evenodd;stroke:#000000;stroke-width:1px;stroke-linecap:butt;stroke-linejoin:miter;stroke-opacity:1"
           id="path2518"
           transform="matrix(0.30873,0,0,0.30873,239.3721,87.64056)"
           cx="403.05087"
           cy="687.84863"
           r="64.346718" />
        <path
           style="fill:#f08618;fill-opacity:1;fill-rule:evenodd;stroke:#000000;stroke-width:1px;stroke-linecap:butt;stroke-linejoin:miter;stroke-opacity:1"
           d="m 359.27702,271.74266 -12.70711,5.25 -23.33452,-23.33452 36.04163,-14.29048 z"
           id="path4340" />
        <path
           style="fill:#f08618;fill-opacity:1;fill-rule:evenodd;stroke:#000000;stroke-width:1px;stroke-linecap:butt;stroke-linejoin:miter;stroke-opacity:1"
           d="M 381.44759,277.32544 368.75,272.05246 v -32.99999 l 35.59017,15.38038 z"
           id="path5220" />
        <path
           style="fill:#f08618;fill-opacity:1;fill-rule:evenodd;stroke:#000000;stroke-width:1px;stroke-linecap:butt;stroke-linejoin:miter;stroke-opacity:1"
           d="m 340.98479,282.66459 -5.27297,12.69759 h -33 L 318.09221,259.772 Z"
           id="path5222" />
        <path
           style="fill:#f08618;fill-opacity:1;fill-rule:evenodd;stroke:#000000;stroke-width:1px;stroke-linecap:butt;stroke-linejoin:miter;stroke-opacity:1"
           d="m 335.79952,305.4406 5.25,12.7071 -23.33452,23.33453 -14.29048,-36.04164 z"
           id="path5224" />
        <path
           style="fill:#f08618;fill-opacity:1;fill-rule:evenodd;stroke:#000000;stroke-width:1px;stroke-linecap:butt;stroke-linejoin:miter;stroke-opacity:1"
           d="m 346.62452,323.03489 12.69759,5.27296 v 33.00001 l -35.59018,-15.3804 z"
           id="path5226" />
        <path
           style="fill:#f08618;fill-opacity:1;fill-rule:evenodd;stroke:#000000;stroke-width:1px;stroke-linecap:butt;stroke-linejoin:miter;stroke-opacity:1"
           d="m 368.22496,328.23165 12.7071,-5.25001 23.33453,23.33453 -36.04165,14.29048 z"
           id="path5228" />
        <path
           style="fill:#f08618;fill-opacity:1;fill-rule:evenodd;stroke:#000000;stroke-width:1px;stroke-linecap:butt;stroke-linejoin:miter;stroke-opacity:1"
           d="m 386.69425,318.39517 5.27296,-12.6976 h 33.00001 l -15.3804,35.59019 z"
           id="path5230" />
        <path
           style="fill:#f08618;fill-opacity:1;fill-rule:evenodd;stroke:#000000;stroke-width:1px;stroke-linecap:butt;stroke-linejoin:miter;stroke-opacity:1"
           d="m 392.391,295.91973 -5.24999,-12.70711 23.33452,-23.33452 14.29048,36.04162 z"
           id="path5232" />
      </g>
    </g>
  </g>
</svg>

<?xml version="1.0" encoding="UTF-8" standalone="no"?>
<!-- Created with Inkscape (http://www.inkscape.org/) -->
<svg
   xmlns:dc="http://purl.org/dc/elements/1.1/"
   xmlns:cc="http://web.resource.org/cc/"
   xmlns:rdf="http://www.w3.org/1999/02/22-rdf-syntax-ns#"
   xmlns:svg="http://www.w3.org/2000/svg"
   xmlns="http://www.w3.org/2000/svg"
   xmlns:sodipodi="http://inkscape.sourceforge.net/DTD/sodipodi-0.dtd"
   xmlns:inkscape="http://www.inkscape.org/namespaces/inkscape"
   viewBox="0 0 24 24"
   id="svg2"
   sodipodi:version="0.32"
   inkscape:version="0.43"
   sodipodi:docbase="/home/vinicius"
   sodipodi:docname="bud_wheel.svg"
   version="1.0">
  <defs
     id="defs4" />
  <sodipodi:namedview
     id="base"
     pagecolor="#ffffff"
     bordercolor="#666666"
     borderopacity="1.0"
     inkscape:pageopacity="0.0"
     inkscape:pageshadow="2"
     inkscape:zoom="0.35355339"
     inkscape:cx="460.99758"
     inkscape:cy="480.04507"
     inkscape:document-units="px"
     inkscape:current-layer="layer1"
     showguides="true"
     inkscape:guide-bbox="true"
     inkscape:window-width="1024"
     inkscape:window-height="693"
     inkscape:window-x="0"
     inkscape:window-y="25" />
  <metadata
     id="metadata7">
    <rdf:RDF>
      <cc:Work
         rdf:about="">
        <dc:format>image/svg+xml</dc:format>
        <dc:type
           rdf:resource="http://purl.org/dc/dcmitype/StillImage" />
        <dc:title>Dharma Wheel</dc:title>
        <dc:date>2006-05-25</dc:date>
        <dc:creator>
          <cc:Agent>
            <dc:title>Vinicius Cubas Brand</dc:title>
          </cc:Agent>
        </dc:creator>
        <dc:rights>
          <cc:Agent>
            <dc:title>Public Domain</dc:title>
          </cc:Agent>
        </dc:rights>
        <dc:publisher>
          <cc:Agent>
            <dc:title>Vinicius Cubas Brand</dc:title>
          </cc:Agent>
        </dc:publisher>
        <cc:license
           rdf:resource="http://web.resource.org/cc/PublicDomain" />
      </cc:Work>
      <cc:License
         rdf:about="http://web.resource.org/cc/PublicDomain">
        <cc:permits
           rdf:resource="http://web.resource.org/cc/Reproduction" />
        <cc:permits
           rdf:resource="http://web.resource.org/cc/Distribution" />
        <cc:permits
           rdf:resource="http://web.resource.org/cc/DerivativeWorks" />
      </cc:License>
    </rdf:RDF>
  </metadata>
  <g
     inkscape:label="Layer 1"
     inkscape:groupmode="layer"
     id="layer1">
    <g
       id="g7039"
       transform="translate(-37.81785,-20.31677)">
      <path
         id="path2507"
         d="M 306.80223,39.316774 L 306.80223,39.379274 L 285.98973,59.098024 L 287.86473,80.160524 C 245.14172,84.120524 206.12858,100.97094 174.77098,126.78552 L 160.70848,109.94177 L 132.02098,110.72302 L 131.98973,110.66052 L 131.98973,110.72302 L 131.98973,110.75427 L 131.20848,139.41052 L 147.86473,153.34802 C 120.62685,185.55353 102.96191,226.10062 99.270978,270.59802 L 76.833478,268.59802 L 57.114728,289.41052 L 57.052228,289.41052 L 57.083478,289.44177 L 57.052228,289.47302 L 57.114728,289.47302 L 76.833478,310.28552 L 99.520978,308.25427 C 103.70976,351.8631 121.34105,391.55681 148.20848,423.16052 L 130.20848,438.19177 L 130.98973,466.84802 L 130.95848,466.91052 L 130.98973,466.91052 L 131.02098,466.91052 L 159.70848,467.66052 L 174.92723,449.44177 C 206.30382,475.21266 245.32516,492.02374 288.05223,495.94177 L 285.98973,519.03552 L 306.80223,538.75427 L 306.80223,538.81677 L 306.83348,538.78552 L 306.86473,538.81677 L 306.86473,538.75427 L 327.67723,519.03552 L 325.61473,496.03552 C 368.60612,492.29923 407.88554,475.50392 439.45848,449.66052 L 453.95848,467.00427 L 482.64598,466.25427 L 482.67723,466.25427 L 482.70848,466.25427 L 482.67723,466.19177 L 483.45848,437.53552 L 466.39598,423.25427 C 493.2721,391.67417 510.92667,351.99746 515.14598,308.41052 L 536.30223,310.28552 L 556.02098,289.47302 L 556.08348,289.47302 L 556.05223,289.44177 L 556.08348,289.41052 L 556.02098,289.41052 L 536.30223,268.59802 L 515.36473,270.47302 C 511.67128,226.29593 494.20276,186.01722 467.27098,153.94177 L 483.45848,140.41052 L 482.67723,111.75427 L 482.67723,111.72302 L 482.67723,111.66052 L 482.64598,111.72302 L 453.95848,110.94177 L 440.36473,127.19177 C 408.68578,100.96055 369.12888,83.904374 325.80223,80.098024 L 327.67723,59.098024 L 306.86473,39.379274 L 306.86473,39.316774 L 306.83348,39.348024 L 306.80223,39.316774 z M 322.80223,113.66052 C 359.08237,116.84181 392.19531,131.12298 418.73973,153.06677 L 359.52098,223.87927 C 347.02423,213.69982 331.55338,207.03091 314.61473,205.41052 L 322.80223,113.66052 z M 290.86473,113.75427 L 299.05223,205.37927 C 282.52125,206.83782 267.37708,213.07286 254.98973,222.72302 L 196.42723,152.66052 C 222.64061,131.15237 255.20575,117.08783 290.86473,113.75427 z M 173.77098,175.00427 L 243.61473,233.41052 C 232.03914,246.49748 224.506,263.21189 222.89598,281.62927 L 132.89598,273.59802 C 135.96457,236.16904 150.84473,202.06614 173.77098,175.00427 z M 441.39598,175.56677 C 464.02369,202.50667 478.70128,236.35537 481.77098,273.47302 L 390.20848,281.62927 C 388.65423,263.84484 381.52647,247.66198 370.61473,234.78552 L 441.39598,175.56677 z M 305.23973,224.69177 C 305.37603,224.68832 305.50948,224.69437 305.64598,224.69177 C 306.06035,224.68389 306.47974,224.69177 306.89598,224.69177 C 342.41537,224.69179 371.23973,253.51613 371.23973,289.03552 C 371.23974,324.55491 342.41537,353.37927 306.89598,353.37927 C 271.37659,353.37925 242.55223,324.55491 242.55223,289.03552 C 242.55222,254.06949 270.48432,225.57077 305.23973,224.69177 z M 222.95848,297.25427 C 224.68185,315.00114 231.92498,331.13238 242.95848,343.91052 L 174.08348,401.50427 C 151.52919,375.04234 136.71391,341.79147 133.14598,305.25427 L 222.95848,297.25427 z M 390.11473,297.25427 L 481.52098,305.41052 C 477.92137,341.93551 463.09425,375.18765 440.52098,401.62927 L 370.67723,343.22302 C 381.39074,330.55431 388.42037,314.68842 390.11473,297.25427 z M 359.58348,354.12927 L 417.83348,423.78552 C 391.39717,445.34152 358.55779,459.32914 322.61473,462.44177 L 314.61473,372.66052 C 331.58441,371.03717 347.07478,364.34029 359.58348,354.12927 z M 254.17723,354.69177 C 266.71068,364.70683 282.15633,371.20183 299.05223,372.69177 L 291.05223,462.34802 C 255.37474,459.05271 222.79082,445.05065 196.55223,423.56677 L 254.17723,354.69177 z "
         style="fill:#f08618;fill-opacity:1;fill-rule:evenodd;stroke:#000000;stroke-width:1px;stroke-linecap:butt;stroke-linejoin:miter;stroke-opacity:1" />
      <g
         transform="matrix(0.908209,0,0,0.908209,-23.17143,16.24009)"
         id="g7028">
        <path
           sodipodi:type="arc"
           style="fill:#f08618;fill-opacity:1;fill-rule:evenodd;stroke:#000000;stroke-width:1px;stroke-linecap:butt;stroke-linejoin:miter;stroke-opacity:1"
           id="path2518"
           sodipodi:cx="403.05087"
           sodipodi:cy="687.84863"
           sodipodi:rx="64.346718"
           sodipodi:ry="64.346718"
           d="M 467.39759 687.84863 A 64.346718 64.346718 0 1 1  338.70415,687.84863 A 64.346718 64.346718 0 1 1  467.39759 687.84863 z"
           transform="matrix(0.30873,0,0,0.30873,239.3721,87.64056)" />
        <path
           style="fill:#f08618;fill-opacity:1;fill-rule:evenodd;stroke:#000000;stroke-width:1px;stroke-linecap:butt;stroke-linejoin:miter;stroke-opacity:1"
           d="M 359.27702,271.74266 L 346.56991,276.99266 L 323.23539,253.65814 L 359.27702,239.36766 L 359.27702,271.74266 z "
           id="path4340" />
        <path
           style="fill:#f08618;fill-opacity:1;fill-rule:evenodd;stroke:#000000;stroke-width:1px;stroke-linecap:butt;stroke-linejoin:miter;stroke-opacity:1"
           d="M 381.44759,277.32544 L 368.75,272.05246 L 368.75,239.05247 L 404.34017,254.43285 L 381.44759,277.32544 z "
           id="path5220" />
        <path
           style="fill:#f08618;fill-opacity:1;fill-rule:evenodd;stroke:#000000;stroke-width:1px;stroke-linecap:butt;stroke-linejoin:miter;stroke-opacity:1"
           d="M 340.98479,282.66459 L 335.71182,295.36218 L 302.71182,295.36218 L 318.09221,259.772 L 340.98479,282.66459 z "
           id="path5222" />
        <path
           style="fill:#f08618;fill-opacity:1;fill-rule:evenodd;stroke:#000000;stroke-width:1px;stroke-linecap:butt;stroke-linejoin:miter;stroke-opacity:1"
           d="M 335.79952,305.4406 L 341.04952,318.1477 L 317.715,341.48223 L 303.42452,305.44059 L 335.79952,305.4406 z "
           id="path5224" />
        <path
           style="fill:#f08618;fill-opacity:1;fill-rule:evenodd;stroke:#000000;stroke-width:1px;stroke-linecap:butt;stroke-linejoin:miter;stroke-opacity:1"
           d="M 346.62452,323.03489 L 359.32211,328.30785 L 359.32211,361.30786 L 323.73193,345.92746 L 346.62452,323.03489 z "
           id="path5226" />
        <path
           style="fill:#f08618;fill-opacity:1;fill-rule:evenodd;stroke:#000000;stroke-width:1px;stroke-linecap:butt;stroke-linejoin:miter;stroke-opacity:1"
           d="M 368.22496,328.23165 L 380.93206,322.98164 L 404.26659,346.31617 L 368.22494,360.60665 L 368.22496,328.23165 z "
           id="path5228" />
        <path
           style="fill:#f08618;fill-opacity:1;fill-rule:evenodd;stroke:#000000;stroke-width:1px;stroke-linecap:butt;stroke-linejoin:miter;stroke-opacity:1"
           d="M 386.69425,318.39517 L 391.96721,305.69757 L 424.96722,305.69757 L 409.58682,341.28776 L 386.69425,318.39517 z "
           id="path5230" />
        <path
           style="fill:#f08618;fill-opacity:1;fill-rule:evenodd;stroke:#000000;stroke-width:1px;stroke-linecap:butt;stroke-linejoin:miter;stroke-opacity:1"
           d="M 392.391,295.91973 L 387.14101,283.21262 L 410.47553,259.8781 L 424.76601,295.91972 L 392.391,295.91973 z "
           id="path5232" />
      </g>
    </g>
  </g>
</svg>
